X:12
T:Le bois de la rivière Kelvin
C:                           % composer
O:Ecosse
Z:Transcrit et/ou corrigé par Michel BELLON - 2006-06-20
Z:Pour toute observation mailto:galouvielle@free.fr
M:3/4                           % meter
L:1/4                        % length of shortest note
Q:1/4=180                           % tempo
K:G                           % key
V:1                          % voice 1
G/A/ | "G"B2d | "D"A2B | "Em"G2F | "D"E2D | "C"E3 | "Am"A3- | "D"A3 |
"D"A2G/A/ | "G"B2d | "D"A2B | "Em"G2F | "D"E2D | "C"E3 | G3 | "G"G3- |
"G"G2A/B/ | "Am"c2B | c2d | "C"e3- | e2B/c/ | "G"d2B | "Am"A2G | "D"A3 |
A2G/A/ | "G"B2d | "D"A2B | "Em"G2F | "D"E2D | "C"E3 | G3- | "G"G3 |]

%%footer $D   Galouvielle-MBe 2006 \n-- (Ecosse)
